icons/linear-new-time-hourglass-full.svg

<svg xmlns="http://www.w3.org/2000/svg" width="32px" height="32px" viewBox="0 0 32 32" version="1.1">
    <title>linear-new-time-hourglass-full</title>
    <g id="linear-new-time-hourglass-full" stroke-width="1" fill-rule="evenodd">
        <path d="M27,2 C27.5522847,2 28,2.44771525 28,3 C28,3.55228475 27.5522847,4 27,4 L25.893,4 L25.8884182,4.03501299 C25.8387923,4.40064792 25.7774277,4.79336368 25.7030212,5.20791406 C25.419185,6.78928699 25.0052109,8.37212937 24.4333456,9.85897908 C23.3756322,12.6090339 21.9124295,14.7082273 19.9883919,15.8976139 C23.3130334,17.5940301 25.2850743,21.6869341 25.9156286,28.0002006 L27,28 C27.5522847,28 28,28.4477153 28,29 C28,29.5522847 27.5522847,30 27,30 L5,30 C4.44771525,30 4,29.5522847 4,29 C4,28.4477153 4.44771525,28 5,28 L6.08437143,28.0002006 C6.7024239,21.8121057 8.60929556,17.7572009 11.8147041,15.9995671 C8.60952549,14.2430143 6.70263937,10.1884248 6.08447174,4.00080364 L5,4 C4.44771525,4 4,3.55228475 4,3 C4,2.44771525 4.44771525,2 5,2 L27,2 Z M16,17 C11.5158107,17 8.87234398,20.5283391 8.09417937,28.0000345 L23.9058206,28.0000345 C23.127656,20.5283391 20.4841893,17 16,17 Z M21,24 C21.5522847,24 22,24.4477153 22,25 C22,25.5522847 21.5522847,26 21,26 L11,26 C10.4477153,26 10,25.5522847 10,25 C10,24.4477153 10.4477153,24 11,24 L21,24 Z M23.8738423,3.99871948 L8.0942832,4.00096226 C8.87257909,11.4719747 11.5160101,15 16,15 C18.996436,15 21.1361789,12.8602571 22.5666544,9.14102092 C23.0885391,7.78412063 23.47144,6.32008801 23.7344788,4.85458594 L23.8320884,4.27463902 C23.8467763,4.18104135 23.8606876,4.08903669 23.8738423,3.99871948 Z M20,8 C20.5522847,8 21,8.44771525 21,9 C21,9.55228475 20.5522847,10 20,10 L12,10 C11.4477153,10 11,9.55228475 11,9 C11,8.44771525 11.4477153,8 12,8 L20,8 Z" id="&#24418;&#29366;" fill-rule="nonzero" />
    </g>
</svg>

<svg xmlns="http://www.w3.org/2000/svg" viewBox="0 0 32 32"><path fill="currentColor" d="M27 2a1 1 0 0 1 0 2h-1.107l-.005.035c-.05.366-.11.758-.185 1.173-.284 1.581-.698 3.164-1.27 4.651-1.057 2.75-2.52 4.85-4.445 6.039 3.325 1.696 5.297 5.789 5.928 12.102H27a1 1 0 0 1 0 2H5a1 1 0 0 1 0-2h1.084c.618-6.188 2.525-10.243 5.73-12-3.204-1.757-5.111-5.812-5.73-12H5a1 1 0 1 1 0-2zM16 17c-4.484 0-7.128 3.528-7.906 11h15.812c-.778-7.472-3.422-11-7.906-11m5 7a1 1 0 0 1 0 2H11a1 1 0 0 1 0-2zm2.874-20.001L8.094 4C8.873 11.472 11.516 15 16 15c2.996 0 5.136-2.14 6.567-5.859.522-1.357.904-2.82 1.167-4.286l.098-.58zM20 8a1 1 0 0 1 0 2h-8a1 1 0 0 1 0-2z"/></svg>
